icons/2_Variations/Bethesda bg.var.svg

<svg width="1024" height="1024" fill="none" xmlns="http://www.w3.org/2000/svg"><g clip-path="url(#a)"><path d="M512 1024c282.77 0 512-229.23 512-512S794.77 0 512 0 0 229.23 0 512s229.23 512 512 512Z" fill="#96DFD3"/><path d="M163.5 504.4h43.8V459h-43.8v45.4Zm234.1.2v-17.1h12.6v-23h28.4v23h15.2v17.8h-15.2v26.4c0 7 1.6 10 8.7 10 2.2 0 4.3-.1 6.5-.4v21.9c-5.7 0-12.2.9-18.2.9-12 0-25.4-1.9-25.4-22.6v-36.1h-12.3c3.4 7.1 5.1 16 5.1 26.5h-54.5c.7 8.6 5.6 14.7 14.5 14.7 4.6 0 9.6-1.7 11.9-5.4h26.5c-5.7 16.3-21.4 23.9-38.3 23.9-23.8 0-41.7-14.3-41.7-39.5 0-22 15.8-39.9 39.3-39.9 18.7-.1 30.6 6.6 36.9 18.9Zm-218.7-16.2V475h12.9v13.4h-12.9Zm45.7 74.7v-104h56c27 0 32.7 15.4 32.7 26.1 0 10.5-5 16.2-12.6 20.4 9.2 3.2 17.8 10.6 17.8 25.9 0 20.8-17.8 31.6-35.8 31.6h-58.1Zm31.5-79.2v15.7h16.6c6.6 0 10.7-1.9 10.7-8.6 0-5.3-4.3-7.1-10.7-7.1h-16.6Zm0 35.1v19.4h18.5c6.6 0 12.3-1.9 12.3-9.9 0-6.1-3.6-9.5-11-9.5h-19.8Zm92.6-2.2h27.1c0-7-5.2-12.7-12.5-12.7-8.5 0-13.3 4.5-14.6 12.7Zm109.8 46.3v-104h28.4v36.5h.3c4.9-5.8 11.2-10 23.2-10 13.3 0 25.5 8.3 25.5 25.6V563h-28.4v-39.6c0-8.7-1-14.9-9.3-14.9-4.9 0-11.3 2.5-11.3 14.6V563h-28.4v.1Zm162.6-31.3h-54.5c.7 8.6 5.6 14.7 14.5 14.7 4.6 0 9.6-3.1 11.9-6.8h26.5c-5.7 16.3-21.4 25.3-38.3 25.3-23.8 0-41.7-14.3-41.7-39.5 0-22 15.8-39.9 39.3-39.9 29.6 0 42.3 16.8 42.3 46.2Zm-54.3-15h27.1c0-7-5.1-12.7-12.5-12.7-8.4 0-13.3 4.5-14.6 12.7Zm125.8-7.3h-25.8c-.2-2.5-1.4-4.4-3.3-5.7-1.7-1.5-4-2.2-6.3-2.2-4 0-8.6.9-8.6 5.8 0 2.2 1.7 3.2 3.3 3.9 4.7 2 15.5 2.6 24.9 5.8 9.5 3.1 17.8 8.7 17.8 21.1 0 21-19.8 26.6-37.9 26.6-17.5 0-36.7-5.8-37.1-25.3h27.1c.1 2.6 1.3 3.4 3.4 5.3 1.4 1.3 4.2 2.2 7.6 2.2 3.7 0 9.6-1.5 9.6-5.8 0-4.4-2.4-5.7-15.6-8-21.6-3.8-30.4-10.8-30.4-23.7 0-19.1 20.2-24 35.1-24 16.1.1 35.5 4.6 36.2 24Zm83.6-50.4v104h-27.4v-8.3h-.3c-3.6 4.8-7.9 10.2-21.8 10.2-21.1 0-31.2-21.1-31.2-40.1 0-17.8 6.7-39.3 31.7-39.3 8.4 0 16.1 3.8 20.4 10.2h.3v-36.7h28.3Zm80.9 56.1v31c0 5.7.3 12.1 3.4 16.9h-29c-.7-2-1.2-5.1-1-7.1h-.3c-6 7-14.8 9-23.9 9-14.3 0-26.2-7-26.2-22.9 0-23.9 27.5-23 42-25.8 3.9-.7 7.7-1.9 7.7-6.7 0-5.1-4.7-7-9.3-7-8.7 0-10.5 4.5-10.6 7.7h-26.4c.9-21.3 20.6-24.7 38.3-24.7 35.5 0 35.3 15 35.3 29.6Zm-108.2 10c0-8.9-2.3-18.6-12.5-18.6s-12.5 9.8-12.5 18.6c0 9 2.3 18.8 12.5 18.8s12.5-9.8 12.5-18.8Zm80.9 10.9v-7c-3.4 1.8-7.3 2.8-11.2 3.6-6.3 1.4-9.6 3.1-9.6 8.2 0 3.5 3.7 7 8.9 7 6.5 0 11.5-3.9 11.9-11.8Zm-666.3-31.7h43.8V459h-43.8v45.4Zm234.1.2v-17.1h12.6v-23h28.4v23h15.2v17.8h-15.2v26.4c0 7 1.6 10 8.7 10 2.2 0 4.3-.1 6.5-.4v21.9c-5.7 0-12.2.9-18.2.9-12 0-25.4-1.9-25.4-22.6v-36.1h-12.3c3.4 7.1 5.1 16 5.1 26.5h-54.5c.7 8.6 5.6 14.7 14.5 14.7 4.6 0 9.6-1.7 11.9-5.4h26.5c-5.7 16.3-21.4 23.9-38.3 23.9-23.8 0-41.7-14.3-41.7-39.5 0-22 15.8-39.9 39.3-39.9 18.7-.1 30.6 6.6 36.9 18.9Zm-218.7-16.2V475h12.9v13.4h-12.9Zm45.7 74.7v-104h56c27 0 32.7 15.4 32.7 26.1 0 10.5-5 16.2-12.6 20.4 9.2 3.2 17.8 10.6 17.8 25.9 0 20.8-17.8 31.6-35.8 31.6h-58.1Zm31.5-79.2v15.7h16.6c6.6 0 10.7-1.9 10.7-8.6 0-5.3-4.3-7.1-10.7-7.1h-16.6Zm0 35.1v19.4h18.5c6.6 0 12.3-1.9 12.3-9.9 0-6.1-3.6-9.5-11-9.5h-19.8Zm92.6-2.2h27.1c0-7-5.2-12.7-12.5-12.7-8.5 0-13.3 4.5-14.6 12.7Zm109.8 46.3v-104h28.4v36.5h.3c4.9-5.8 11.2-10 23.2-10 13.3 0 25.5 8.3 25.5 25.6V563h-28.4v-39.6c0-8.7-1-14.9-9.3-14.9-4.9 0-11.3 2.5-11.3 14.6V563h-28.4v.1Zm162.6-31.3h-54.5c.7 8.6 5.6 14.7 14.5 14.7 4.6 0 9.6-3.1 11.9-6.8h26.5c-5.7 16.3-21.4 25.3-38.3 25.3-23.8 0-41.7-14.3-41.7-39.5 0-22 15.8-39.9 39.3-39.9 29.6 0 42.3 16.8 42.3 46.2Zm-54.3-15h27.1c0-7-5.1-12.7-12.5-12.7-8.4 0-13.3 4.5-14.6 12.7Zm125.8-7.3h-25.8c-.2-2.5-1.4-4.4-3.3-5.7-1.7-1.5-4-2.2-6.3-2.2-4 0-8.6.9-8.6 5.8 0 2.2 1.7 3.2 3.3 3.9 4.7 2 15.5 2.6 24.9 5.8 9.5 3.1 17.8 8.7 17.8 21.1 0 21-19.8 26.6-37.9 26.6-17.5 0-36.7-5.8-37.1-25.3h27.1c.1 2.6 1.3 3.4 3.4 5.3 1.4 1.3 4.2 2.2 7.6 2.2 3.7 0 9.6-1.5 9.6-5.8 0-4.4-2.4-5.7-15.6-8-21.6-3.8-30.4-10.8-30.4-23.7 0-19.1 20.2-24 35.1-24 16.1.1 35.5 4.6 36.2 24Zm83.6-50.4v104h-27.4v-8.3h-.3c-3.6 4.8-7.9 10.2-21.8 10.2-21.1 0-31.2-21.1-31.2-40.1 0-17.8 6.7-39.3 31.7-39.3 8.4 0 16.1 3.8 20.4 10.2h.3v-36.7h28.3Zm80.9 56.1v31c0 5.7.3 12.1 3.4 16.9h-29c-.7-2-1.2-5.1-1-7.1h-.3c-6 7-14.8 9-23.9 9-14.3 0-26.2-7-26.2-22.9 0-23.9 27.5-23 42-25.8 3.9-.7 7.7-1.9 7.7-6.7 0-5.1-4.7-7-9.3-7-8.7 0-10.5 4.5-10.6 7.7h-26.4c.9-21.3 20.6-24.7 38.3-24.7 35.5 0 35.3 15 35.3 29.6Zm-108.2 10c0-8.9-2.3-18.6-12.5-18.6s-12.5 9.8-12.5 18.6c0 9 2.3 18.8 12.5 18.8s12.5-9.8 12.5-18.8Zm80.9 10.9v-7c-3.4 1.8-7.3 2.8-11.2 3.6-6.3 1.4-9.6 3.1-9.6 8.2 0 3.5 3.7 7 8.9 7 6.5 0 11.5-3.9 11.9-11.8Z" fill="#fff"/></g><defs><clipPath id="a"><path fill="#fff" d="M0 0h1024v1024H0z"/></clipPath></defs></svg>

<svg width="1024" height="1024" viewBox="0 0 1024 1024" fill="none" xmlns="http://www.w3.org/2000/svg">
<g clip-path="url(#clip0_3_20)">
<path d="M512 1024C794.77 1024 1024 794.77 1024 512C1024 229.23 794.77 0 512 0C229.23 0 0 229.23 0 512C0 794.77 229.23 1024 512 1024Z" fill="#96DFD3"/>
<path d="M163.5 504.4H207.3V459H163.5V504.4ZM397.6 504.6V487.5H410.2V464.5H438.6V487.5H453.8V505.3H438.6V531.7C438.6 538.7 440.2 541.7 447.3 541.7C449.5 541.7 451.6 541.6 453.8 541.3V563.2C448.1 563.2 441.6 564.1 435.6 564.1C423.6 564.1 410.2 562.2 410.2 541.5V505.4H397.9C401.3 512.5 403 521.4 403 531.9H348.5C349.2 540.5 354.1 546.6 363 546.6C367.6 546.6 372.6 544.9 374.9 541.2H401.4C395.7 557.5 380 565.1 363.1 565.1C339.3 565.1 321.4 550.8 321.4 525.6C321.4 503.6 337.2 485.7 360.7 485.7C379.4 485.6 391.3 492.3 397.6 504.6ZM178.9 488.4V475H191.8V488.4H178.9ZM224.6 563.1V459.1H280.6C307.6 459.1 313.3 474.5 313.3 485.2C313.3 495.7 308.3 501.4 300.7 505.6C309.9 508.8 318.5 516.2 318.5 531.5C318.5 552.3 300.7 563.1 282.7 563.1H224.6ZM256.1 483.9V499.6H272.7C279.3 499.6 283.4 497.7 283.4 491C283.4 485.7 279.1 483.9 272.7 483.9H256.1ZM256.1 519V538.4H274.6C281.2 538.4 286.9 536.5 286.9 528.5C286.9 522.4 283.3 519 275.9 519H256.1ZM348.7 516.8H375.8C375.8 509.8 370.6 504.1 363.3 504.1C354.8 504.1 350 508.6 348.7 516.8ZM458.5 563.1V459.1H486.9V495.6H487.2C492.1 489.8 498.4 485.6 510.4 485.6C523.7 485.6 535.9 493.9 535.9 511.2V563H507.5V523.4C507.5 514.7 506.5 508.5 498.2 508.5C493.3 508.5 486.9 511 486.9 523.1V563H458.5V563.1ZM621.1 531.8H566.6C567.3 540.4 572.2 546.5 581.1 546.5C585.7 546.5 590.7 543.4 593 539.7H619.5C613.8 556 598.1 565 581.2 565C557.4 565 539.5 550.7 539.5 525.5C539.5 503.5 555.3 485.6 578.8 485.6C608.4 485.6 621.1 502.4 621.1 531.8ZM566.8 516.8H593.9C593.9 509.8 588.8 504.1 581.4 504.1C573 504.1 568.1 508.6 566.8 516.8ZM692.6 509.5H666.8C666.6 507 665.4 505.1 663.5 503.8C661.8 502.3 659.5 501.6 657.2 501.6C653.2 501.6 648.6 502.5 648.6 507.4C648.6 509.6 650.3 510.6 651.9 511.3C656.6 513.3 667.4 513.9 676.8 517.1C686.3 520.2 694.6 525.8 694.6 538.2C694.6 559.2 674.8 564.8 656.7 564.8C639.2 564.8 620 559 619.6 539.5H646.7C646.8 542.1 648 542.9 650.1 544.8C651.5 546.1 654.3 547 657.7 547C661.4 547 667.3 545.5 667.3 541.2C667.3 536.8 664.9 535.5 651.7 533.2C630.1 529.4 621.3 522.4 621.3 509.5C621.3 490.4 641.5 485.5 656.4 485.5C672.5 485.6 691.9 490.1 692.6 509.5ZM776.2 459.1V563.1H748.8V554.8H748.5C744.9 559.6 740.6 565 726.7 565C705.6 565 695.5 543.9 695.5 524.9C695.5 507.1 702.2 485.6 727.2 485.6C735.6 485.6 743.3 489.4 747.6 495.8H747.9V459.1H776.2ZM857.1 515.2V546.2C857.1 551.9 857.4 558.3 860.5 563.1H831.5C830.8 561.1 830.3 558 830.5 556H830.2C824.2 563 815.4 565 806.3 565C792 565 780.1 558 780.1 542.1C780.1 518.2 807.6 519.1 822.1 516.3C826 515.6 829.8 514.4 829.8 509.6C829.8 504.5 825.1 502.6 820.5 502.6C811.8 502.6 810 507.1 809.9 510.3H783.5C784.4 489 804.1 485.6 821.8 485.6C857.3 485.6 857.1 500.6 857.1 515.2ZM748.9 525.2C748.9 516.3 746.6 506.6 736.4 506.6C726.2 506.6 723.9 516.4 723.9 525.2C723.9 534.2 726.2 544 736.4 544C746.6 544 748.9 534.2 748.9 525.2ZM829.8 536.1V529.1C826.4 530.9 822.5 531.9 818.6 532.7C812.3 534.1 809 535.8 809 540.9C809 544.4 812.7 547.9 817.9 547.9C824.4 547.9 829.4 544 829.8 536.1ZM163.5 504.4H207.3V459H163.5V504.4ZM397.6 504.6V487.5H410.2V464.5H438.6V487.5H453.8V505.3H438.6V531.7C438.6 538.7 440.2 541.7 447.3 541.7C449.5 541.7 451.6 541.6 453.8 541.3V563.2C448.1 563.2 441.6 564.1 435.6 564.1C423.6 564.1 410.2 562.2 410.2 541.5V505.4H397.9C401.3 512.5 403 521.4 403 531.9H348.5C349.2 540.5 354.1 546.6 363 546.6C367.6 546.6 372.6 544.9 374.9 541.2H401.4C395.7 557.5 380 565.1 363.1 565.1C339.3 565.1 321.4 550.8 321.4 525.6C321.4 503.6 337.2 485.7 360.7 485.7C379.4 485.6 391.3 492.3 397.6 504.6ZM178.9 488.4V475H191.8V488.4H178.9ZM224.6 563.1V459.1H280.6C307.6 459.1 313.3 474.5 313.3 485.2C313.3 495.7 308.3 501.4 300.7 505.6C309.9 508.8 318.5 516.2 318.5 531.5C318.5 552.3 300.7 563.1 282.7 563.1H224.6ZM256.1 483.9V499.6H272.7C279.3 499.6 283.4 497.7 283.4 491C283.4 485.7 279.1 483.9 272.7 483.9H256.1ZM256.1 519V538.4H274.6C281.2 538.4 286.9 536.5 286.9 528.5C286.9 522.4 283.3 519 275.9 519H256.1ZM348.7 516.8H375.8C375.8 509.8 370.6 504.1 363.3 504.1C354.8 504.1 350 508.6 348.7 516.8ZM458.5 563.1V459.1H486.9V495.6H487.2C492.1 489.8 498.4 485.6 510.4 485.6C523.7 485.6 535.9 493.9 535.9 511.2V563H507.5V523.4C507.5 514.7 506.5 508.5 498.2 508.5C493.3 508.5 486.9 511 486.9 523.1V563H458.5V563.1ZM621.1 531.8H566.6C567.3 540.4 572.2 546.5 581.1 546.5C585.7 546.5 590.7 543.4 593 539.7H619.5C613.8 556 598.1 565 581.2 565C557.4 565 539.5 550.7 539.5 525.5C539.5 503.5 555.3 485.6 578.8 485.6C608.4 485.6 621.1 502.4 621.1 531.8ZM566.8 516.8H593.9C593.9 509.8 588.8 504.1 581.4 504.1C573 504.1 568.1 508.6 566.8 516.8ZM692.6 509.5H666.8C666.6 507 665.4 505.1 663.5 503.8C661.8 502.3 659.5 501.6 657.2 501.6C653.2 501.6 648.6 502.5 648.6 507.4C648.6 509.6 650.3 510.6 651.9 511.3C656.6 513.3 667.4 513.9 676.8 517.1C686.3 520.2 694.6 525.8 694.6 538.2C694.6 559.2 674.8 564.8 656.7 564.8C639.2 564.8 620 559 619.6 539.5H646.7C646.8 542.1 648 542.9 650.1 544.8C651.5 546.1 654.3 547 657.7 547C661.4 547 667.3 545.5 667.3 541.2C667.3 536.8 664.9 535.5 651.7 533.2C630.1 529.4 621.3 522.4 621.3 509.5C621.3 490.4 641.5 485.5 656.4 485.5C672.5 485.6 691.9 490.1 692.6 509.5ZM776.2 459.1V563.1H748.8V554.8H748.5C744.9 559.6 740.6 565 726.7 565C705.6 565 695.5 543.9 695.5 524.9C695.5 507.1 702.2 485.6 727.2 485.6C735.6 485.6 743.3 489.4 747.6 495.8H747.9V459.1H776.2ZM857.1 515.2V546.2C857.1 551.9 857.4 558.3 860.5 563.1H831.5C830.8 561.1 830.3 558 830.5 556H830.2C824.2 563 815.4 565 806.3 565C792 565 780.1 558 780.1 542.1C780.1 518.2 807.6 519.1 822.1 516.3C826 515.6 829.8 514.4 829.8 509.6C829.8 504.5 825.1 502.6 820.5 502.6C811.8 502.6 810 507.1 809.9 510.3H783.5C784.4 489 804.1 485.6 821.8 485.6C857.3 485.6 857.1 500.6 857.1 515.2ZM748.9 525.2C748.9 516.3 746.6 506.6 736.4 506.6C726.2 506.6 723.9 516.4 723.9 525.2C723.9 534.2 726.2 544 736.4 544C746.6 544 748.9 534.2 748.9 525.2ZM829.8 536.1V529.1C826.4 530.9 822.5 531.9 818.6 532.7C812.3 534.1 809 535.8 809 540.9C809 544.4 812.7 547.9 817.9 547.9C824.4 547.9 829.4 544 829.8 536.1Z" fill="white"/>
</g>
<defs>
<clipPath id="clip0_3_20">
<rect width="1024" height="1024" fill="white"/>
</clipPath>
</defs>
</svg>
